X: 163
T: Goldenrod Jig
T: Jig, D
C: Wilfred Gillis
L: 1/16
M: 6/8
K: D
|: f6 f2d2B2| A2B2A2 D2F2A2| d2c2d2 b2f2a2| g6 g2f2a2| g6 g2e2c2| A2c2e2 g2f2g2| f2c2e2 d2A2G2| F6 F2A2d2| 
[1 f6 f2c2e2| d2A2F2 D2F2A2| d2c2d2 b2f2a2| g6 g2f2a2| g6 g2f2a2| g2e2c2 A2c2e2| a2b2a2 A2B2c2| d6 d4e2:| 
[2 f6 f2c2e2| d2A2F2 D2F2A2| d2c2d2 b2f2a2| g6 B2c2d2| e6 e2d2f2| e4d2 c4B2| A2B2A2 g2f2e2| d6 D2F2G2|] 
|: A6 A2F2A2| d2f2d2 A2F2G2| A2F2A2 d2e2d2| c6 E4F2| G6 G2F2G2| e4f2 e4d2| c2B2c2 d2A2G2| F6 D2F2G2| A6 A2F2A2| 
d2f2d2 A2F2G2| A2F2A2 d2A2=c2| B6 B4c2| d6 d2c2B2| A2d2f2 a4f2| g2e2c2 A2B2c2| [1 d6 D2F2G2:| [2 d6 d4e2|] 
D: Buddy MacMaster, Glencoe Hall, BM-91
